svg/fluentui-system-icons/ic_fluent_crop_24_filled.svg

<svg width="24" height="24" viewBox="0 0 24 24" fill="none" xmlns="http://www.w3.org/2000/svg">
<path d="M7 15.5C7 16.2797 7.59489 16.9204 8.35554 16.9931L8.5 17H21C21.5523 17 22 17.4477 22 18C22 18.5128 21.614 18.9355 21.1166 18.9933L21 19H19V21C19 21.5523 18.5523 22 18 22C17.4872 22 17.0645 21.614 17.0067 21.1166L17 21V19H8.5C6.63144 19 5.10487 17.5357 5.00518 15.692L5 15.5V7H3C2.44772 7 2 6.55228 2 6C2 5.48716 2.38604 5.06449 2.88338 5.00673L3 5H5V3C5 2.44772 5.44772 2 6 2C6.51284 2 6.93551 2.38604 6.99327 2.88338L7 3V15.5ZM8 5H15.5C17.3686 5 18.8951 6.46428 18.9948 8.30796L19 8.5V16H17V8.5C17 7.7203 16.4051 7.07955 15.6445 7.00687L15.5 7H8V5Z" fill="#212121"/>
</svg>

<svg xmlns="http://www.w3.org/2000/svg" width="24" height="24"><path d="M7 15.5a1.5 1.5 0 0 0 1.356 1.493L8.5 17H21a1 1 0 0 1 .117 1.993L21 19h-2v2a1 1 0 0 1-1.993.117L17 21v-2H8.5a3.5 3.5 0 0 1-3.495-3.308L5 15.5V7H3a1 1 0 0 1-.117-1.993L3 5h2V3a1 1 0 0 1 1.993-.117L7 3v12.5ZM8 5h7.5a3.5 3.5 0 0 1 3.495 3.308L19 8.5V16h-2V8.5a1.5 1.5 0 0 0-1.355-1.493L15.5 7H8V5Z"/></svg>
